app/assets/img/shared/logo.svg

<svg viewBox="0 0 467.4 472.72" xmlns="http://www.w3.org/2000/svg"><g stroke="#000" stroke-miterlimit="10" stroke-width="30"><path d="m174.11 183.29h-159.11v274.43h159.11c101.16 0 183.89-61.72 183.89-137.22 0-75.5-82.73-137.21-183.89-137.21z" fill="#4263eb" opacity=".85"/><path d="m268.47 15h-159.11v274.43h159.11c101.16 0 183.93-61.74 183.93-137.21 0-75.47-82.77-137.22-183.93-137.22z" fill="#47f6cb" opacity=".85"/></g></svg>

<svg xmlns="http://www.w3.org/2000/svg" viewBox="0 0 467.4 472.72">
  <defs>
    <style>.cls-1 {fill: #4263eb;}.cls-1,.cls-2 {stroke: #000;stroke-miterlimit: 10;stroke-width: 30px;opacity: 0.85;}.cls-2 {fill: #47f6cb;}</style>
  </defs>
  <path class="cls-1" d="M174.11,183.29H15V457.72H174.11C275.27,457.72,358,396,358,320.5h0C358,245,275.27,183.29,174.11,183.29Z"/>
  <path class="cls-2" d="M268.47,15H109.36V289.43H268.47c101.16,0,183.93-61.74,183.93-137.21h0C452.4,76.75,369.63,15,268.47,15Z"/>
</svg>
